X:363
T:AUSTRALIAN LADIES
R:march
C:Arr. by Barbara McOwen
S:8 X 32 Reel 1,2,3,42,3,4,1
P:The Australian Ladies
M:4/4
L:1/8
K:D
|: Ad|"D"f2 af d2 A2|"D"B2 A2 "Bm"f2 ef|"Em"g3 e c2 e2|"A7"ce A2 A2 de|!
"D"f2 af d2 A2|"D"B2 A2 "D7"f2 ef|"G"BGgf "A7"e2 cA|"D"d4 d2 :|!
fg|"D"a3 f d2 a2|"D"fAdf "Bm"a2 ef|"Em"g3 e c2 e2|"A7"eAce g2 fg|"D"a3 fd2 a2|!
"D"fAdf "D7"a2 A2|"G"BGgf "A7"e2 cA|"D"d4 d2 ||fg|"D"a3 f d2 a2|"D"fAdf "Bm"a2 ef|!
"Em"g3 e c2 e2|"A7"eAce g2 fg|"D"aA a2 f2 a2|"D"fafe "D7"d2 A2|"G"BGgf "A7"e2 cA|"D"d4 d2 |]
